ix/language-circle_bold.svg

<svg viewBox="0 0 24 24" fill="none" xmlns="http://www.w3.org/2000/svg" height="1em" width="1em">
  <path d="M12 2C6.48 2 2 6.48 2 12s4.48 10 10 10 10-4.48 10-10S17.52 2 12 2Zm5 15.47c-1.71 0-3.31-.74-4.59-2.11-1.45 1.31-3.34 2.11-5.41 2.11-.41 0-.75-.34-.75-.75s.34-.75.75-.75c3.47 0 6.34-2.75 6.71-6.27h-6.7c-.41 0-.75-.34-.75-.75s.34-.74.75-.74h4.24v-.93c0-.41.34-.75.75-.75s.75.34.75.75v.93h1.69c.02 0 .04-.01.06-.01.02 0 .04.01.06.01h2.43c.41 0 .75.34.75.75s-.34.75-.75.75h-1.78a8.754 8.754 0 0 1-1.77 4.56c1 1.11 2.25 1.71 3.56 1.71.41 0 .75.34.75.75s-.34.74-.75.74Z" fill="#292D32"/>
</svg>

<svg viewBox="0 0 24 24" fill="none" xmlns="http://www.w3.org/2000/svg" height="1em" width="1em">
  <path d="M12 2C6.48 2 2 6.48 2 12C2 17.52 6.48 22 12 22C17.52 22 22 17.52 22 12C22 6.48 17.52 2 12 2ZM17 17.47C15.29 17.47 13.69 16.73 12.41 15.36C10.96 16.67 9.07 17.47 7 17.47C6.59 17.47 6.25 17.13 6.25 16.72C6.25 16.31 6.59 15.97 7 15.97C10.47 15.97 13.34 13.22 13.71 9.7H12H7.01C6.6 9.7 6.26 9.36 6.26 8.95C6.26 8.54 6.6 8.21 7.01 8.21H11.25V7.28C11.25 6.87 11.59 6.53 12 6.53C12.41 6.53 12.75 6.87 12.75 7.28V8.21H14.44C14.46 8.21 14.48 8.2 14.5 8.2C14.52 8.2 14.54 8.21 14.56 8.21H16.99C17.4 8.21 17.74 8.55 17.74 8.96C17.74 9.37 17.4 9.71 16.99 9.71H15.21C15.06 11.42 14.42 12.99 13.44 14.27C14.44 15.38 15.69 15.98 17 15.98C17.41 15.98 17.75 16.32 17.75 16.73C17.75 17.14 17.41 17.47 17 17.47Z" fill="#292D32"/>
</svg>
